X: 583
T: Fiddler's Drunk and the Fun's All Over
C:J.P. Fraley / from playing of Mike Compton
B: jims roots
M:4/4
L:1/8
Q: 1/4=100
K:C
V:1 
%TablEdited by Jim Kendrick
"C"[G,2c2E2] [G,2c2E2][G,2c2E2][G,2c2E2] | cdcB A2 G2 | "G"[B2d2][Bd][Bd] [B2d2][Bd][Bd] | dedB A2 G2 | "C"[G,2c2E2] [G,2c2E2][G,2c2E2][G,2c2E2] ] |
cdcB A2 G2 | "G"B2 G2 A2 B2 | [c2E2] [cE][cE] [c2E2] [cE][cE]::"C"{^d}e2-[eg][eg] [e2g2] [eg][eg]| gage d2 c2 |
"G"[G,2D2] [g2B2] [G,2D2] [a2B2] | gaab a2 g2 |  "C"{^d}e2-[eg][eg] [e2g2] [eg][eg]| gage d2 c2 | "G"B2 G2 A2 B2 | "C"[c2E2] [cE][cE] [c4E4]:|
% abcbook-tune_id 6298c25da40ef0d25d3371da


% abcbook-boost 0
% abcbook-tablature 
% abcbook-transpose 
% abcbook-lastupdated 1654178398126
% abcbook-soundfonts 
% abcbook-repeats 1


